packages/app/src/assets/pijl-omhoog.svg

<svg width="24" height="24" viewBox="0 0 24 24" fill="currentColor" xmlns="http://www.w3.org/2000/svg" focusable="false">
	<path d="M19.889 11.95L13.089 3.45C12.589 2.85 11.589 2.85 11.089 3.45L4.28903 11.95C3.88903 12.45 3.88903 13.15 4.38903 13.55C4.78903 14.05 5.48903 14.05 5.98903 13.75L9.58903 11.35V19.35C9.58903 20.65 10.989 21.05 12.189 21.05C13.389 21.05 14.589 20.65 14.589 19.35V11.35L18.189 13.75C18.389 13.85 18.689 13.95 18.889 13.95C19.189 13.95 19.589 13.85 19.789 13.55C20.189 13.15 20.289 12.45 19.889 11.95Z" fill="currentColor" />
</svg>

<svg focusable="false" viewBox="0 0 24 24" fill="none" xmlns="http://www.w3.org/2000/svg"><path d="M19.889 11.95l-6.8-8.5c-.5-.6-1.5-.6-2 0l-6.8 8.5c-.4.5-.4 1.2.1 1.6.4.5 1.1.5 1.6.2l3.6-2.4v8c0 1.3 1.4 1.7 2.6 1.7 1.2 0 2.4-.4 2.4-1.7v-8l3.6 2.4c.2.1.5.2.7.2.3 0 .7-.1.9-.4.4-.4.5-1.1.1-1.6z" fill="currentColor"/></svg>
